img/icons/icon_youtube_.svg

<svg width="46" height="48" fill="none" xmlns="http://www.w3.org/2000/svg">
<path d="M-260-2820h768V285h-768v-3105z" fill="#fff"/>
<path fill="#81B3D2" d="M0 0h46v48H0z"/>
<path fill-rule="evenodd" clip-rule="evenodd" d="M16 16h14c1.65 0 3 1.35 3 3v10c0 1.65-1.35 3-3 3H16c-1.65 0-3-1.35-3-3V19c0-1.65 1.35-3 3-3zm3.027 4.002v7.996L28.014 24l-8.987-3.998z" fill="#fff"/>
</svg>

<svg width="46" height="48" viewBox="0 0 46 48" fill="none" xmlns="http://www.w3.org/2000/svg">
<path d="M-260 -2820H508V285H-260V-2820Z" fill="white"/>
<rect width="46" height="48" fill="#81B3D2"/>
<path fill-rule="evenodd" clip-rule="evenodd" d="M16 16H30C31.65 16 33 17.35 33 19V29C33 30.65 31.65 32 30 32H16C14.35 32 13 30.65 13 29V19C13 17.35 14.35 16 16 16ZM19.027 20.002V27.998L28.014 24L19.027 20.002Z" fill="white"/>
</svg>
